!!!COM: Stadler, Maximilian
!!!CDT: 1748///-1833///
!!!COA: Haydn, Joseph
!!!OTL@@IT: Gioco filarmonico
!!!OTL@EN: Philharmonic Joke
!!!OTA@@IT: o sia maniera facile per comporre un infinito numero de minuetti e trio anche senza sapere il contrapunto
!!!OTA@EN: or the Art of Composing an Infinite Number of Minutes Without the Least Knowledge of Counterpoint
!!!PDT: 1781///
!!!PPR: Artaria
!!!SML: Gesellschaft der Musikfreundes, Vienna
!!!PPR2: Luigi Marescalchi
!!!PPP2: Napoli
!!!PDT2: 1790///
**kern	**kern	**kern
*Icello	*Ivioln	*Ivioln
*>[A,A,B,B,A]	*>[A,A,B,B,A]	*>[A,A,B,B,A]
*>norep[A,B]	*>norep[A,B]	*>norep[A,B]
*>A	*>A	*>A
*k[]	*k[]	*k[]
*M3/4	*M3/4	*M3/4
*MM120	*MM120	*MM120
!!section:  I
!!measure:  A
!!diceroll: 4
=69	=69	=69
8C	2.r	2gg
8G	.	.
8E	.	.
8G	.	.
8C	.	16ff
.	.	16ee
8G	.	16dd
.	.	16cc
!!section:  I
!!measure:  B
!!diceroll: 6
=74	=74	=74
2F	2e	8cc
.	.	8b
.	.	8gg
.	.	8b
4E	4e	4cc
!!section:  I
!!measure:  C
!!diceroll: 9
=114	=114	=114
4E	4c	8gg
.	.	16ff
.	.	16gg
4F	4c	8aa
.	.	8a
4r	4r	8ff
.	.	8dd
!!section:  I
!!measure:  D
!!diceroll: 9
=50	=50	=50
2G	8f	8b
.	8e	8cc
.	16f	16dd
.	16e	16cc
.	16f	16dd
.	16g	16ee
4C	4e	4cc
!!section:  I
!!measure:  E
!!diceroll: 7
=154	=154	=154
4C	2G	8r
.	.	8ee
4BB	.	16ff
.	.	16ee
.	.	8dd
4AA	4e	16ee
.	.	16dd
.	.	8cc
!!section:  I
!!measure:  F
!!diceroll: 6
=97	=97	=97
4BB	4d	16r
.	.	16d
.	.	16e
.	.	16f#
4r	4r	16g
.	.	16a
.	.	16b
.	.	16cc
4r	4r	16dd
.	.	16ee
.	.	16ff#
.	.	16gg
!!section:  I
!!measure:  G
!!diceroll: 10
=62	=62	=62
4GG	12b	12dd
.	12b	12gg
.	12dd	12ff#
4C	12cc	12ee
.	12bb	12dd
.	12a	12cc
4D	12g	12b
.	12a	12cc
.	12ff#	12a
!!section:  I
!!measure:  H
!!diceroll: 3
=81	=81	=81
4GG	2.g	2.g
4D	.	.
4G	.	.
*>B	*>B	*>B
!!section:  II
!!measure:  A
!!diceroll: 5
=90	=90	=90
12C	4e	4g
12E	.	.
12G	.	.
12C	4ee	4gg
12E	.	.
12G	.	.
12AA	4cc#	4ee
12E	.	.
12A	.	.
!!section:  II
!!measure:  B
!!diceroll: 5
=176	=176	=176
4D	12d	8ee
.	12f	.
.	.	8ff
.	12a	.
4D	12d	2dd
.	12f	.
.	12a	.
4D	12d	.
.	12f	.
.	12a	.
!!section:  II
!!measure:  C
!!diceroll: 8
=57	=57	=57
4B	4d	4f
4r	4r	16ff
.	.	16ee
.	.	16dd
.	.	16cc
4G	4d	4b
!!section:  II
!!measure:  D
!!diceroll: 5
=34	=34	=34
4E	2.g	8gg
.	.	8cc
4F	.	16b
.	.	16cc
.	.	16dd
.	.	16b
4E	.	4cc
!!section:  II
!!measure:  E
!!diceroll: 9
=51	=51	=51
4F	2.c	8.a
.	.	16cc
4A	.	8.ff
.	.	16cc
4F	.	4aa
!!section:  II
!!measure:  F
!!diceroll: 6
=136	=136	=136
4r	4r	[4g
4F	4d	16g]
.	.	16a
.	.	16b
.	.	16cc
4E	4c	16dd
.	.	16ee
.	.	16ff#
.	.	16gg
!!section:  II
!!measure:  G
!!diceroll: 8
=89	=89	=89
2F	2A	8r
.	.	8cc#
.	.	8dd
.	.	8ff
4G	4G	8b
.	.	8dd
!!section:  II
!!measure:  H
!!diceroll: 5
=170	=170	=170
4C	2.cc	2.cc
4G	.	.
4c	.	.
*-	*-	*-
!!!END: 2004/11/01/
